X: 41717
T: Valley Of The Moon
R: reel
M: 4/4
K: Amajor
|:cE3 FEFA|cAeA f2ef|fafe cfec|B2AB cBBA|
AE3 cBAB|cAeA f2ef|fafe cfec|1 BAcB BAAB:|2 BAcB BAce||
|:f2 f3e/f/|afec B2AB|cE3 FEFA|AB3 cBBA|
[1f2 f3e/f/|afec B2AB|cE3 FEFA|BAcB BAce:|
[2a2 a3f/e/|afec B2AB|cE3 FEFA|BAcB BA A2||

